images/builder/exit.svg

<svg xmlns="http://www.w3.org/2000/svg" width="22" height="22" viewBox="0 0 14 14" stroke="#000"><path d="M0 0v14h9v-4H7v2H2V2h5v2h2V0zm10 3.5v2.25H4v2.5h6v2.25L14 7z" style="fill:#aaa9ad;fill-opacity:1;stroke:none" stroke="none"/></svg>

<svg xmlns:dc="http://purl.org/dc/elements/1.1/" xmlns:cc="http://creativecommons.org/ns#" xmlns:rdf="http://www.w3.org/1999/02/22-rdf-syntax-ns#" xmlns:svg="http://www.w3.org/2000/svg" xmlns="http://www.w3.org/2000/svg" version="1.1" width="22px" height="22px" viewBox="0 0 14 14" id="svg2" fill="#000000" stroke="#000000"><g id="SVGRepo_bgCarrier" stroke-width="0"></g><g id="SVGRepo_tracerCarrier" stroke-linecap="round" stroke-linejoin="round"></g><g id="SVGRepo_iconCarrier"> <metadata id="metadata8"> <rdf:rdf> <cc:work rdf:about=""> <dc:format>image/svg+xml</dc:format> <dc:type rdf:resource="http://purl.org/dc/dcmitype/StillImage"></dc:type> <dc:title></dc:title> </cc:work> </rdf:rdf> </metadata> <defs id="defs6"></defs> <rect width="14" height="14" x="0" y="0" id="canvas" style="fill:none;stroke:none;visibility:hidden"></rect> <path d="M 0,0 0,14 9,14 9,10 7,10 7,12 2,12 2,2 7,2 7,4 9,4 9,0 z m 10,3.5 0,2.25 -6,0 0,2.5 6,0 0,2.25 4,-3.5 z" id="exit" style="fill:#aaa9ad;fill-opacity:1;stroke:none"></path> </g></svg>
